assets/svg/icon_videos_trading.svg

<svg width="24" height="24" viewBox="0 0 24 24" fill="none" xmlns="http://www.w3.org/2000/svg">
<path d="M3.00195 11.5593V12.4342C3.00195 15.3102 3.00195 16.7482 3.81926 17.7161C3.96888 17.8933 4.13605 18.0557 4.31836 18.2011C5.31425 18.9955 6.79386 18.9955 9.75309 18.9955C12.7123 18.9955 14.1919 18.9955 15.1879 18.2011C15.3701 18.0557 15.5373 17.8933 15.6869 17.7161C16.5042 16.7482 16.5042 15.3102 16.5042 12.4342V11.5593C16.5042 8.68332 16.5042 7.24532 15.6869 6.27744C15.5373 6.10025 15.3701 5.93778 15.1879 5.79237C14.1919 4.99805 12.7123 4.99805 9.75309 4.99805C6.79386 4.99805 5.31425 4.99805 4.31836 5.79237C4.13605 5.93778 3.96888 6.10025 3.81926 6.27744C3.43415 6.73349 3.2305 7.29392 3.12282 8.05998M16.502 9.80705L17.0946 9.51907C18.8461 8.6679 19.722 8.24232 20.3623 8.62696C21.0027 9.0116 21.0027 9.96323 21.0027 11.8665V12.1218C21.0027 14.0251 21.0027 14.9767 20.3623 15.3613C19.722 15.746 18.8461 15.3204 17.0946 14.4692L16.502 14.1813V9.80705ZM11.9927 9.38202C12.6079 9.97991 12.6079 10.9493 11.9927 11.5472C11.3773 12.145 10.3795 12.145 9.76418 11.5472C9.14892 10.9493 9.14892 9.97991 9.76418 9.38202C10.3795 8.78412 11.3773 8.78412 11.9927 9.38202Z" stroke="white" stroke-width="1.5" stroke-linecap="round"/>
</svg>

<svg xmlns="http://www.w3.org/2000/svg" width="24" height="24" fill="none"><path stroke="#fff" stroke-linecap="round" stroke-width="1.5" d="M3.002 11.56v.874c0 2.876 0 4.314.817 5.282q.225.267.5.485c.995.794 2.475.794 5.434.794s4.439 0 5.435-.794q.274-.218.499-.485c.817-.968.817-2.406.817-5.282v-.875c0-2.876 0-4.314-.817-5.282a3.6 3.6 0 0 0-.5-.485c-.995-.794-2.475-.794-5.434-.794s-4.439 0-5.435.794q-.274.22-.499.485c-.385.456-.588 1.017-.696 1.783m13.379 1.747.593-.288c1.751-.851 2.627-1.277 3.267-.892s.64 1.336.64 3.24v.255c0 1.903 0 2.855-.64 3.24-.64.384-1.516-.042-3.267-.893l-.593-.288zm-4.51-.425a1.5 1.5 0 0 1 0 2.165 1.61 1.61 0 0 1-2.228 0 1.5 1.5 0 0 1 0-2.165 1.61 1.61 0 0 1 2.229 0Z"/></svg>
